packages/core/src/svgs/skey.svg

<svg width="24" height="24" viewBox="0 0 24 24" fill="none" xmlns="http://www.w3.org/2000/svg">
<g clip-path="url(#clip0_31_18839)">
<path d="M0 0H24V24H0V0Z" fill="#F0F3FA"/>
<path fill-rule="evenodd" clip-rule="evenodd" d="M5.5587 14.5458C5.22378 14.2214 4.95746 13.8331 4.77559 13.4038C4.59372 12.9745 4.5 12.513 4.5 12.0468C4.5 11.5806 4.59372 11.1191 4.77559 10.6898C4.95746 10.2605 5.22378 9.87212 5.5587 9.54778L9.44413 5.74936C10.8558 4.36936 13.1444 4.36936 14.5561 5.74936L18.4416 9.54778C18.7765 9.87212 19.0428 10.2605 19.2247 10.6898C19.4065 11.1191 19.5003 11.5806 19.5003 12.0468C19.5003 12.513 19.4065 12.9745 19.2247 13.4038C19.0428 13.8331 18.7765 14.2214 18.4416 14.5458L14.5561 18.3442C14.5338 18.3661 14.5113 18.3876 14.4884 18.4089L14.2086 17.5346L17.5214 14.3324C17.8082 14.0592 18.0366 13.7306 18.1926 13.3665C18.3486 13.0024 18.4291 12.6105 18.4291 12.2144C18.4291 11.8183 18.3486 11.4263 18.1926 11.0622C18.0366 10.6981 17.8082 10.3695 17.5214 10.0964L14.1914 6.87736C12.9811 5.70736 11.0191 5.70736 9.80928 6.87736L6.47927 10.0964C6.19246 10.3695 5.96412 10.6981 5.8081 11.0622C5.65207 11.4263 5.57162 11.8183 5.57162 12.2144C5.57162 12.6105 5.65207 13.0024 5.8081 13.3665C5.96412 13.7306 6.19246 14.0592 6.47927 14.3324L9.79985 17.5424L9.53327 18.4286C9.50327 18.4012 9.47327 18.3729 9.44413 18.3442L5.5587 14.5458ZM13.8944 16.5524L16.7384 13.7079C17.1345 13.3118 17.357 12.7745 17.357 12.2144C17.357 11.6542 17.1345 11.1169 16.7384 10.7208L13.4941 7.47607C13.298 7.27989 13.0651 7.12427 12.8088 7.0181C12.5525 6.91193 12.2778 6.85728 12.0003 6.85728C11.7229 6.85728 11.4482 6.91193 11.1919 7.0181C10.9356 7.12427 10.7027 7.27989 10.5066 7.47607L7.26185 10.7204C7.06567 10.9165 6.91005 11.1494 6.80388 11.4057C6.6977 11.662 6.64306 11.9367 6.64306 12.2141C6.64306 12.4916 6.6977 12.7663 6.80388 13.0226C6.91005 13.2789 7.06567 13.5118 7.26185 13.7079L10.0998 16.5459L10.4813 15.2786L8.07613 12.8739C7.96135 12.7592 7.87029 12.623 7.80817 12.473C7.74604 12.3231 7.71407 12.1624 7.71407 12.0001C7.71407 11.8378 7.74604 11.6771 7.80817 11.5271C7.87029 11.3772 7.96135 11.241 8.07613 11.1262L11.1263 8.07607C11.241 7.96128 11.3772 7.87023 11.5272 7.8081C11.6771 7.74598 11.8378 7.714 12.0001 7.714C12.1624 7.714 12.3231 7.74598 12.4731 7.8081C12.623 7.87023 12.7592 7.96128 12.874 8.07607L15.9241 11.1262C16.0389 11.241 16.13 11.3772 16.1921 11.5271C16.2542 11.6771 16.2862 11.8378 16.2862 12.0001C16.2862 12.1624 16.2542 12.3231 16.1921 12.473C16.13 12.623 16.0389 12.7592 15.9241 12.8739L13.4946 15.3031L13.8944 16.5524ZM13.1928 14.3606L15.0181 12.5238C15.144 12.3969 15.2147 12.2255 15.2147 12.0468C15.2147 11.8681 15.144 11.6966 15.0181 11.5698L12.4741 9.0095C12.4121 8.94689 12.3383 8.89719 12.2569 8.86327C12.1755 8.82935 12.0883 8.81189 12.0001 8.81189C11.912 8.81189 11.8247 8.82935 11.7434 8.86327C11.662 8.89719 11.5882 8.94689 11.5261 9.0095L8.98213 11.5698C8.85625 11.6966 8.78561 11.8681 8.78561 12.0468C8.78561 12.2255 8.85625 12.3969 8.98213 12.5238L10.7688 14.3216L11.0401 13.4204C10.7338 13.2131 10.5027 12.9124 10.3814 12.563C10.26 12.2137 10.2549 11.8345 10.3667 11.482C10.4786 11.1295 10.7014 10.8226 11.002 10.6071C11.3026 10.3917 11.6648 10.2792 12.0346 10.2865C12.4044 10.2938 12.7618 10.4205 13.0537 10.6477C13.3455 10.8748 13.5561 11.1903 13.6539 11.5469C13.7518 11.9036 13.7316 12.2823 13.5966 12.6266C13.4615 12.9709 13.2187 13.2623 12.9044 13.4572L13.1928 14.3606Z" fill="url(#paint0_linear_31_18839)"/>
</g>
<defs>
<linearGradient id="paint0_linear_31_18839" x1="12.0001" y1="4.71436" x2="12.0001" y2="18.5165" gradientUnits="userSpaceOnUse">
<stop stop-color="#530491"/>
<stop offset="1" stop-color="#03F3FB"/>
</linearGradient>
<clipPath id="clip0_31_18839">
<rect width="24" height="24" fill="white"/>
</clipPath>
</defs>
</svg>

<svg xmlns="http://www.w3.org/2000/svg" width="24" height="24" fill="none" viewBox="0 0 24 24"><g clip-path="url(#a)"><path fill="#F0F3FA" d="M0 0h24v24H0z"/><path fill="url(#b)" fill-rule="evenodd" d="M5.559 14.546a3.48 3.48 0 0 1 0-4.998l3.885-3.799a3.674 3.674 0 0 1 5.112 0l3.886 3.799a3.48 3.48 0 0 1 0 4.998l-3.886 3.798-.068.065-.28-.874 3.313-3.203a2.925 2.925 0 0 0 0-4.236l-3.33-3.219a3.174 3.174 0 0 0-4.382 0l-3.33 3.22a2.924 2.924 0 0 0 0 4.235l3.32 3.21-.266.887-.089-.085zm8.335 2.006 2.844-2.844a2.11 2.11 0 0 0 0-2.987l-3.244-3.245a2.11 2.11 0 0 0-2.987 0L7.262 10.72a2.11 2.11 0 0 0 0 2.988l2.838 2.838.381-1.267-2.405-2.405a1.234 1.234 0 0 1 0-1.748l3.05-3.05a1.234 1.234 0 0 1 1.748 0l3.05 3.05a1.236 1.236 0 0 1 0 1.748l-2.43 2.43zm-.701-2.191 1.825-1.837a.677.677 0 0 0 0-.954l-2.544-2.56a.666.666 0 0 0-.948 0l-2.544 2.56a.677.677 0 0 0 0 .954l1.787 1.798.271-.902a1.714 1.714 0 1 1 1.864.037z" clip-rule="evenodd"/></g><defs><linearGradient id="b" x1="12" x2="12" y1="4.714" y2="18.517" gradientUnits="userSpaceOnUse"><stop stop-color="#530491"/><stop offset="1" stop-color="#03F3FB"/></linearGradient><clipPath id="a"><path fill="#fff" d="M0 0h24v24H0z"/></clipPath></defs></svg>
